svg/u1f432.svg

<svg viewBox="0 0 128 128" xmlns="http://www.w3.org/2000/svg">
  <path d="M16.74,29.97c7.41-9.85,18.72-4,21.87-1.78c3.19,2.25,10.42,5.16,14.27,4.04 c3.85-1.13,5.64-6.96,3.2-8.74c-3.08-2.25-5.46,0.04-5.36,2.08c0.04,0.84,0.66,2.63-0.75,3c-0.73,0.19-1.6-0.75-1.88-1.97 c-0.28-1.22-0.26-2.8,0.94-4.79c2.51-4.16,10.52-3.14,11.77,2.66c1.2,5.62-2.49,9.51-6.14,10.85c-5.38,1.98-12.9-0.32-16.42-3 c-4.45-3.39-12.95-5.47-17.55-0.09c-6.66,7.79,6.76,22.71,6.76,22.71l-5.26,4.13c0,0-1.5-2.91-4.6-9.48 C14.67,43.41,12.38,35.76,16.74,29.97z" fill="#78DE89"/>
  <path d="M38.04,65.17l-12.2,1.69c0,0,0.75,2.44,1.03,4.22c0.28,1.78,0.58,5.59-0.66,6.38 c-2.35,1.5-4.97-1.97-11.83-1.13c-3.78,0.47-9.29,2.53-9.76,7.6c-0.5,5.45,5.34-0.64,9.76-1.03c3.19-0.28,4.22,3.38,4.22,3.38 s7.88,6.66,8.35,5.73c0.47-0.94,22.52-17.74,22.52-17.74L38.04,65.17z" fill="#D43330"/>
  <path d="M22.75,67.42c0,0-0.56,5.63,1.22,6.1c1.78,0.47,2.82-2.82,2.82-2.82s1.6-0.28,4.6-0.28 c1.79,0,4.32,0.66,4.32,0.66s-0.6,2.43,1.03,3.28c1.97,1.03,5.91-6.38,5.91-6.38l-14.08-2.44L22.75,67.42z" fill="#FFFAFE"/>
  <path d="M19.37,88.16c0,0,0.94-4.22,1.22-5.16s0.84-3,1.78-3.19s2.25,1.6,2.25,1.6s3.47-2.53,4.32-3 s3.38-1.5,3.38-1.5s-0.09-2.41,1.31-2.63c2.44-0.38,3.1,4.5,3.1,4.5l-10.7,11.17L19.37,88.16z" fill="#FFFAFE"/>
  <path d="M23.03,96.37c0,0,0.99,4.93,9.01,9.71s12.95,5.63,15.91,5.91c2.96,0.28,5.91,0.28,5.91-1.13 c0-1.02-2.11-2.25-4.79-2.82c-2.67-0.56-3.8-1.27-3.1-2.39c1.27-2.02,7.74,2.11,13.09,2.96c5.35,0.84,16.05,3.52,17.03-0.7 s-7.04-1.27-7.46-4.22c-0.42-2.96,7.88-2.67,13.09-0.99c5.21,1.69,9.71,6.34,11.68,6.62c1.97,0.28,3.4-1.26,2.82-3.52 c-0.66-2.53-2.25-4.79-5.07-6.62s-15.91-7.18-15.91-7.18L46.54,89.9l-10.56,0.28L23.03,96.37z" fill="#BCCE46"/>
  <linearGradient id="SVGID_1_" gradientUnits="userSpaceOnUse" x1="131.4162" x2="63.091" y1="52.3676" y2="69.6366">
    <stop offset="0.1705" stop-color="#01AB46"/>
    <stop offset="0.499" stop-color="#128A3C"/>
    <stop offset="1" stop-color="#2F502A"/>
  </linearGradient>
  <path d="M32.18,51.6c0,0-1.27-8.59,2.96-12.11s8.59-2.53,11.26-2.39c2.67,0.14,9.43,2.39,18.86,1.55 c10.02-0.9,18.72-5.21,27.45-6.34c8.73-1.13,15.77,0.99,15.49,4.08c-0.28,3.1-13.09,1.69-12.11,4.93 c0.99,3.24,18.44-2.53,19.71,2.67c1.33,5.47-9.06,1.98-8.87,5.07c0.28,4.65,14.78-1.69,16.61,3.8c2.11,6.34-15.49,7.04-13.23,10.84 c2.25,3.8,12.39-1.13,13.09,2.96c0.61,3.54-2.3,5.82-6.48,6.9c-2.89,0.75-12.47,1.11-12.39,3.66c0.14,4.36,7.88,0.42,9.71,2.67 c1.83,2.25-2.96,6.9-11.26,7.32c-5.64,0.29-10.28-1.83-10.42,0.28c-0.14,2.11,5.44,2.34,7.6,3.38c3.52,1.69,4.79,3.38,3.24,6.19 c-1.55,2.82-4.92-0.67-7.32-0.84c-3.8-0.28-8.31,1.13-11.97,1.13c-3.66,0-10.56-2.11-10.56-2.11s1.27,1.41,0,2.53 s-4.65,0.99-8.87-1.27c-4.22-2.25-7.32-2.96-8.59-2.96s-7.58,0.13-8.68-0.61c-8.73-5.91,3.89-36.56,3.89-36.56L32.18,51.6z" fill="url(#SVGID_1_)"/>
  <path d="M54.94,46.58c0,0,9.1-3.47,13.7-9.2c2.94-3.66,4.88-11.36,9.85-9.1c6.2,2.81-5.12,11.77-3.85,12.11 c1.78,0.47,7.04-4.13,10.32-7.7c3.28-3.57,7.3-5.13,9.48-2.44c2.44,3-1.6,8.07-7.51,11.83c-5.91,3.75-11.39,5.76-15.02,6.38 c-3.85,0.66-11.17,0.75-11.17,0.75l-7.13-0.19L54.94,46.58z" fill="#FEB30B"/>
  <path d="M67.51,63.71c0,0,3.73,1.9,8.59-2.11c3.02-2.49,6.69-4.58,11.83-5.91c5.42-1.41,7.53-0.63,10.21-1.48 c2.67-0.84,5.9-1.83,7.67-2.32c2.53-0.7,4.95,2.87,0.7,5.21c-2.82,1.55-6.41,2.46-8.87,2.75c-1.41,0.16-5.29,1.15-6.66,1.67 c-2.82,1.06-5.58,3.61-5.58,3.61s7.05-2.65,11.12-2.96c4.93-0.38,10.35-0.14,11.9-0.99c1.55-0.84,5.98-3.03,7.53-0.28 c1.53,2.71-2.67,6.12-7.04,7.11s-9.36,0.42-14.01,1.34c-2.85,0.56-8.09,2.67-13.73,6.19c-5.63,3.52-11.26,4.79-13.94,4.5 c-2.67-0.28-7.6,6.76-7.6,6.76L43.3,88.91l-11.4,3.94c0,0-3.8,7.32-11.26,4.79c-7.46-2.53-5.91-11.83-3.52-12.39 c2.39-0.56,3.52,2.39,5.77,1.69c2.25-0.7,6.61-6.86,10.56-8.31c3.66-1.34,8.24-0.99,8.24-6.19s-11.19-4.36-13.73-4.08 c-2.53,0.28-12.11,3.52-17.46-0.7s-6.78-19.52,0.28-21.54c5.91-1.69,11.26,6.05,17.03,6.05c4.65,0,5.84-3.94,10.63-8.02 c3.53-3.01,7.53-4.29,10.35-2.96c2.34,1.11-5.21,3.38-3.8,3.94c0,0,5.07-1.97,9.01-2.11s4.72,0.38,5.21,1.27 c0.7,1.27-3.8,1.27-2.67,2.39c1.13,1.13,5.91-0.7,9.01-0.14c3.1,0.56,3.1,2.11,2.39,2.67c-0.7,0.56-5.56,1.55-5.63,2.96 c-0.05,0.98,3.04,1.21,4.58,2.96c1.55,1.76,1.27,4.22,1.13,5.49C67.86,61.88,67.51,63.71,67.51,63.71z" fill="#01AB46"/>
  <path d="M46.26,52.03c-3.02,0.34-8.52-4.43-11.47,2.67c-2.39,5.76,5.8,10,10.84,6.12 c2.3-1.76,3.59-4.01,5.35-5.77c1.16-1.16,2.67-1.99,3.03-3.1C54.63,49.99,49.42,51.68,46.26,52.03z" fill="#78DE8A"/>
  <path d="M31.97,93.49c0,0,1.06-5.98,6.48-7.88s15.27-0.28,17.46-0.99c2.18-0.7,5.23-1.87,5.84-7.6 c0.49-4.65-0.99-5.07-1.27-11.05c-0.33-6.97,4.22-8.67,5.77-8.59c1.27,0.07,2.25,0.92,2.32,1.9c0.1,1.42-0.14,2.25-0.14,2.25 s2.5,0.5,3.03,4.5c0.77,5.91-3.66,8.52-4.01,11.68c-0.35,3.17,0,8.73-5,11.54s-5.44,1.24-9.08,2.46c-1.43,0.48-3.87,1.9-6.69,1.48 c-2.82-0.42-3.59-1.55-7.25-1.55C36.6,91.66,31.97,93.49,31.97,93.49z" fill="#78DE8A"/>
  <path d="M42.6,58.24c-1.22,1.48-3.64,1.82-5.12,0.87c-1.53-0.98-1.35-3.63,0.09-5.35 c1.45-1.72,3.81-2.02,5.21-0.84C44.18,54.09,44.03,56.51,42.6,58.24z" fill="#2A2C33"/>
  <path d="M12,51.23c-1.07,1.19-0.05,2.63,0.33,2.96s1.36,0.99,1.17,1.78c-0.19,0.8-1.41,2.39-0.52,3.14 c0.89,0.75,3.19-0.66,3.47-3.33c0.28-2.67-0.89-3.85-1.5-4.41C14.35,50.81,12.89,50.24,12,51.23z" fill="#44484A"/>
</svg>

<svg viewBox="0 0 128 128" xmlns="http://www.w3.org/2000/svg">
  <defs>
    <linearGradient id="SVGID_1_" gradientUnits="userSpaceOnUse" x1="131.4162" x2="63.091" y1="52.3676" y2="69.6366">
      <stop offset="0.1705" stop-color="#01AB46"/>
      <stop offset="0.499" stop-color="#128A3C"/>
      <stop offset="1" stop-color="#2F502A"/>
    </linearGradient>
  </defs>
  <path d="M16.74,29.97 C24.15,20.12 35.46,25.97 38.61,28.19 C41.8,30.44 49.03,33.35 52.88,32.23 C56.73,31.1 58.52,25.27 56.08,23.49 C53,21.24 50.62,23.53 50.72,25.57 C50.76,26.41 51.38,28.2 49.97,28.57 C49.24,28.76 48.37,27.82 48.09,26.6 C47.81,25.38 47.83,23.8 49.03,21.81 C51.54,17.65 59.55,18.67 60.8,24.47 C62,30.09 58.31,33.98 54.66,35.32 C49.28,37.3 41.76,35 38.24,32.32 C33.79,28.93 25.29,26.85 20.69,32.23 C14.03,40.02 27.45,54.94 27.45,54.94 L22.19,59.07 C22.19,59.07 20.69,56.16 17.59,49.59 C14.67,43.41 12.38,35.76 16.74,29.97 Z" fill="#78DE89"/>
  <path d="M38.04,65.17 L25.84,66.86 C25.84,66.86 26.59,69.3 26.87,71.08 C27.15,72.86 27.45,76.67 26.21,77.46 C23.86,78.96 21.24,75.49 14.38,76.33 C10.6,76.8 5.09,78.86 4.62,83.93 C4.12,89.38 9.96,83.29 14.38,82.9 C17.57,82.62 18.6,86.28 18.6,86.28 C18.6,86.28 26.48,92.94 26.95,92.01 C27.42,91.07 49.47,74.27 49.47,74.27 L38.04,65.17 Z" fill="#D43330"/>
  <path d="M22.75,67.42 C22.75,67.42 22.19,73.05 23.97,73.52 C25.75,73.99 26.79,70.7 26.79,70.7 C26.79,70.7 28.39,70.42 31.39,70.42 C33.18,70.42 35.71,71.08 35.71,71.08 C35.71,71.08 35.11,73.51 36.74,74.36 C38.71,75.39 42.65,67.98 42.65,67.98 L28.57,65.54 L22.75,67.42 Z" fill="#FFFAFE"/>
  <path d="M19.37,88.16 C19.37,88.16 20.31,83.94 20.59,83 C20.87,82.06 21.43,80 22.37,79.81 C23.31,79.62 24.62,81.41 24.62,81.41 C24.62,81.41 28.09,78.88 28.94,78.41 C29.79,77.94 32.32,76.91 32.32,76.91 C32.32,76.91 32.23,74.5 33.63,74.28 C36.07,73.9 36.73,78.78 36.73,78.78 L26.03,89.95 L19.37,88.16 Z" fill="#FFFAFE"/>
  <path d="M23.03,96.37 C23.03,96.37 24.02,101.3 32.04,106.08 C40.06,110.86 44.99,111.71 47.95,111.99 C50.91,112.27 53.86,112.27 53.86,110.86 C53.86,109.84 51.75,108.61 49.07,108.04 C46.4,107.48 45.27,106.77 45.97,105.65 C47.24,103.63 53.71,107.76 59.06,108.61 C64.41,109.45 75.11,112.13 76.09,107.91 C77.07,103.69 69.05,106.64 68.63,103.69 C68.21,100.73 76.51,101.02 81.72,102.7 C86.93,104.39 91.43,109.04 93.4,109.32 C95.37,109.6 96.8,108.06 96.22,105.8 C95.56,103.27 93.97,101.01 91.15,99.18 C88.33,97.35 75.24,92 75.24,92 L46.54,89.9 L35.98,90.18 L23.03,96.37 Z" fill="#BCCE46"/>
  <path d="M32.18,51.6 C32.18,51.6 30.91,43.01 35.14,39.49 C39.37,35.97 43.73,36.96 46.4,37.1 C49.07,37.24 55.83,39.49 65.26,38.65 C75.28,37.75 83.98,33.44 92.71,32.31 C101.44,31.18 108.48,33.3 108.2,36.39 C107.92,39.49 95.11,38.08 96.09,41.32 C97.08,44.56 114.53,38.79 115.8,43.99 C117.13,49.46 106.74,45.97 106.93,49.06 C107.21,53.71 121.71,47.37 123.54,52.86 C125.65,59.2 108.05,59.9 110.31,63.7 C112.56,67.5 122.7,62.57 123.4,66.66 C124.01,70.2 121.1,72.48 116.92,73.56 C114.03,74.31 104.45,74.67 104.53,77.22 C104.67,81.58 112.41,77.64 114.24,79.89 C116.07,82.14 111.28,86.79 102.98,87.21 C97.34,87.5 92.7,85.38 92.56,87.49 C92.42,89.6 98,89.83 100.16,90.87 C103.68,92.56 104.95,94.25 103.4,97.06 C101.85,99.88 98.48,96.39 96.08,96.22 C92.28,95.94 87.77,97.35 84.11,97.35 C80.45,97.35 73.55,95.24 73.55,95.24 C73.55,95.24 74.82,96.65 73.55,97.77 C72.28,98.89 68.9,98.76 64.68,96.5 C60.46,94.25 57.36,93.54 56.09,93.54 C54.82,93.54 48.51,93.67 47.41,92.93 C38.68,87.02 51.3,56.37 51.3,56.37 L32.18,51.6 Z" fill="url(#SVGID_1_)"/>
  <path d="M54.94,46.58 C54.94,46.58 64.04,43.11 68.64,37.38 C71.58,33.72 73.52,26.02 78.49,28.28 C84.69,31.09 73.37,40.05 74.64,40.39 C76.42,40.86 81.68,36.26 84.96,32.69 C88.24,29.12 92.26,27.56 94.44,30.25 C96.88,33.25 92.84,38.32 86.93,42.08 C81.02,45.83 75.54,47.84 71.91,48.46 C68.06,49.12 60.74,49.21 60.74,49.21 L53.61,49.02 L54.94,46.58 Z" fill="#FEB30B"/>
  <path d="M67.51,63.71 C67.51,63.71 71.24,65.61 76.1,61.6 C79.12,59.11 82.79,57.02 87.93,55.69 C93.35,54.28 95.46,55.06 98.14,54.21 C100.81,53.37 104.04,52.38 105.81,51.89 C108.34,51.19 110.76,54.76 106.51,57.1 C103.69,58.65 100.1,59.56 97.64,59.85 C96.23,60.01 92.35,61 90.98,61.52 C88.16,62.58 85.4,65.13 85.4,65.13 C85.4,65.13 92.45,62.48 96.52,62.17 C101.45,61.79 106.87,62.03 108.42,61.18 C109.97,60.34 114.4,58.15 115.95,60.9 C117.48,63.61 113.28,67.02 108.91,68.01 C104.54,69 99.55,68.43 94.9,69.35 C92.05,69.91 86.81,72.02 81.17,75.54 C75.54,79.06 69.91,80.33 67.23,80.04 C64.56,79.76 59.63,86.8 59.63,86.8 L43.3,88.91 L31.9,92.85 C31.9,92.85 28.1,100.17 20.64,97.64 C13.18,95.11 14.73,85.81 17.12,85.25 C19.51,84.69 20.64,87.64 22.89,86.94 C25.14,86.24 29.5,80.08 33.45,78.63 C37.11,77.29 41.69,77.64 41.69,72.44 C41.69,67.24 30.5,68.08 27.96,68.36 C25.43,68.64 15.85,71.88 10.5,67.66 C5.15,63.44 3.72,48.14 10.78,46.12 C16.69,44.43 22.04,52.17 27.81,52.17 C32.46,52.17 33.65,48.23 38.44,44.15 C41.97,41.14 45.97,39.86 48.79,41.19 C51.13,42.3 43.58,44.57 44.99,45.13 C44.99,45.13 50.06,43.16 54,43.02 C57.94,42.88 58.72,43.4 59.21,44.29 C59.91,45.56 55.41,45.56 56.54,46.68 C57.67,47.81 62.45,45.98 65.55,46.54 C68.65,47.1 68.65,48.65 67.94,49.21 C67.24,49.77 62.38,50.76 62.31,52.17 C62.26,53.15 65.35,53.38 66.89,55.13 C68.44,56.89 68.16,59.35 68.02,60.62 C67.86,61.88 67.51,63.71 67.51,63.71 Z" fill="#01AB46"/>
  <path d="M46.26,52.03 C43.24,52.37 37.74,47.6 34.79,54.7 C32.4,60.46 40.59,64.7 45.63,60.82 C47.93,59.06 49.22,56.81 50.98,55.05 C52.14,53.89 53.65,53.06 54.01,51.95 C54.63,49.99 49.42,51.68 46.26,52.03 Z" fill="#78DE8A"/>
  <path d="M31.97,93.49 C31.97,93.49 33.03,87.51 38.45,85.61 C43.87,83.71 53.72,85.33 55.91,84.62 C58.09,83.92 61.14,82.75 61.75,77.02 C62.24,72.37 60.76,71.95 60.48,65.97 C60.15,59 64.7,57.3 66.25,57.38 C67.52,57.45 68.5,58.3 68.57,59.28 C68.67,60.7 68.43,61.53 68.43,61.53 C68.43,61.53 70.93,62.03 71.46,66.03 C72.23,71.94 67.8,74.55 67.45,77.71 C67.1,80.88 67.45,86.44 62.45,89.25 C57.45,92.06 57.01,90.49 53.37,91.71 C51.94,92.19 49.5,93.61 46.68,93.19 C43.86,92.77 43.09,91.64 39.43,91.64 C36.6,91.66 31.97,93.49 31.97,93.49 Z" fill="#78DE8A"/>
  <path d="M42.6,58.24 C41.38,59.72 38.96,60.06 37.48,59.11 C35.95,58.13 36.13,55.48 37.57,53.76 C39.02,52.04 41.38,51.74 42.78,52.92 C44.18,54.09 44.03,56.51 42.6,58.24 Z" fill="#2A2C33"/>
  <path d="M12,51.23 C10.93,52.42 11.95,53.86 12.33,54.19 C12.71,54.52 13.69,55.18 13.5,55.97 C13.31,56.77 12.09,58.36 12.98,59.11 C13.87,59.86 16.17,58.45 16.45,55.78 C16.73,53.11 15.56,51.93 14.95,51.37 C14.35,50.81 12.89,50.24 12,51.23 Z" fill="#44484A"/>
</svg>
